X: 69
T:The Waterbed
C:Diarmaid Moynihan
Z:Mike Dugge
D:Calico Celanova Square;Lunasa Live
M:C
L:1/8
K:A Dor
EAAB cBAG| EGDG EDBD| EAAB cBAG| cdec dcAG| 
EAAB cBAG| EGDG EAcd|e2 dB dcAG| EAAG A2 Bc:||
e2 de geed| cdec dcAG| e2 de gaab| aged cA A2|
e2 de geed| cdec dega|g2 ed cded| cABG EA A2 :||
